X:44
T:West's Hornpipe. VWMLa.044
%%VWML:Anon2-3049-p27-0
F:http://www.vwml.org/record/Anon2/3049/p27
R:Hornpipe
S:Anon. MS, late 18thC, Vaughan Williams Mem. Library
O:England;Yorkshire
Z:vmp/efdss.Simon Wilson. Reviewed PJH 2008.
M:C|
L:1/8
Q:1/2=80
K:Bb
B2F>E DB,DF|GEGB AFAc|dBec fdcB|ABcd c2BA|\
B2F>E DB,DF|GEGB AFAc|dBcc dBcA|B2B2 B2!turn!(BA):|
BdGd BdGd|ceGe ceGc|AcFc AcFc|BdFd BdFd|\
BdGd BdGd|ceGe ceGe|Aedc BGAF|G2D2 G,4||
b/a/|bfdB Acfg|fdcB Acfg|edcB ABcd|A2F2- F2GA|\
BFG_A GBcd|eGcB AGFE|Dgfe dcBA|B2B2 B2!turn!(BA)|]
